!!!!SEGMENT: pl-cz--iii-745--001-008_zebrowski-marcin-jozef--missa-pastoralis-sanctus.krn
!!!cenid: 17xx:2356
!!!COM: Żebrowski, Marcin Józef
!!!COM-rismID: pe30020322
!!!CDT: 1702-1770/06/29
!!!CNT: Polish
!!!OPR: Missa Pastoralis
!!!OTL: Sanctus
!!!OMV: 008
!!!PDT:
!!!AGN: Sacred; Mass
!!!YEC: Copyright 2022 Narodowy Instytut Fryderyka Chopina (https://polishscores.org)
!!!YEM: License CC-BY-4.0 (https://creativecommons.org/licenses/by/4.0)
!!!SMS-siglum: PL-CZ
!!!SMS-shelfmark: III-745
!!!SMS-shelfwork: 001-008 M
!!!SMS-variant:
!!!SMS-altvar:
!!!NIFC-rismSourceID: 300033497
!!!NIFC-rismChildID: 300033497
!!!NIFC-islandoraID: pl-cz:25279
!!!URL-pdf-islandora: https://repozytorium.nifc.pl/islandora/object/pl-cz%3A25279/datastream/PDF/view
!!!URL-scan: https://polish.musicsources.pl/pl/lokalizacje/galeria/rekopisy/1475 @EN{Scan on Polish Music Sources Website} @PL{Skany w portalu Dziedzictwo Muzyki Polskiej w otwartym dostępie}
!!!IIIF:
!!!ONB-nifc: UWAGA: części Mszy: 1. Kyrie, 2. Christe, 3. Et in terra, 4. Quoniam, 5. Patrem, 6. Et incarnatus, 7. Et resurrexit, 8. Sanctus, 9. Benedictus, 10. Osanna, 11. Agnus Dei
!!!AIN: 4 empty 1 organ 2 violn
!!!key:
**kern	**fba	**kern	**kern	**kern	**text	**kern	**text	**kern	**kern
*part7	*	*part6	*part5	*part4	*	*part3	*	*part2	*part1
*staff7	*	*staff6	*staff5	*staff4	*	*staff3	*	*staff2	*staff1
*Iorgan	*	*Ivioln	*Ivioln	*Iempty	*	*Iempty	*	*Iempty	*Iempty
*I"Organo	*	*I"Violino Secundo	*I"Violino Primo	*I"Baſso	*	*I"Soprano o Canto	*	*I"Clarino Secundo in D	*I"Clarino Primo in D
*I'org	*	*I'vl 2	*I'vl 1	*I'B	*	*I'S o C	*	*I'clno 2 in D	*I'clno 1 in D
*clefF4	*	*clefG2	*clefG2	*clefF4	*	*clefC1	*	*clefG2	*clefG2
*	*	*	*	*	*	*	*	*ITrd-1c-2	*ITrd-1c-2
*k[f#c#]	*	*k[f#c#]	*k[f#c#]	*k[f#c#]	*	*k[f#c#]	*	*k[f#c#]	*k[f#c#]
*D:	*	*D:	*D:	*D:	*	*D:	*	*D:	*D:
*M4/4	*	*M4/4	*M4/4	*M4/4	*	*M4/4	*	*M4/4	*M4/4
*met(c)	*	*met(c)	*met(c)	*met(c)	*	*met(c)	*	*met(c)	*met(c)
=1	=1	=1	=1	=1	=1	=1	=1	=1	=1
!	!	!	!	!LO:TX:a:rj:t=Adagio	!	!LO:TX:a:rj:t=Adagio	!	!	!
!LO:TX:a:rj:t=T&colon;	!	!LO:TX:a:rj:t=Adagio	!	!	!	!	!	!	!LO:TX:a:rj:t=Adagio
4d\	8	4dd\	4ddd\|>	4d\	San-	4dd\	San-	4dd\|>	4dd\|>
4A\	8	4a/	4aa\|>	4A\	-ctus	4a\	-ctus	4a/|<	4a/|<
*	*	*	*	*	*ij	*	*ij	*	*
4F#\	8	4f#/	4ff#\|>	4F#\	san-	4f#\	san-	4f#/|<	4f#/|<
4D\	8	4d/	4dd\|>	4D\	-ctus	4d/	-ctus	4d/|<	4d/|<
*	*	*	*	*	*	*	*Xij	*	*
=2	=2	=2	=2	=2	=2	=2	=2	=2	=2
8G\L	8	8g/L	(8gg\L	8G\	san-	8g/	San-	2r	2r
8E\	8	8e/J	8ee\)J	8E\	-ctus	8ee\	-ctus	.	.
*	*	*	*	*	*Xij	*	*	*	*
8C#\	8	8c#/L|<	8cc#\L|>	8C#/	Do-	8cc#\	Do-	.	.
8AA\J	8	8A/J|<	8a\J|>	16AA/	-mi-	16a\	-mi-	.	.
.	.	.	.	16AA/	-nus	16a\	-nu	.	.
8D\L	8	8d/L|<	8dd\L	(8D\L	De-	(8dd\L	De-	8d/L	8dd\L
8F#\J	8	8f#/J|<	8ff#\J	8F#\J)	.	8ff#\J)	.	8f#/J	8ff#\J
4A\	8	4a/	4aa\	4A\	-us	4aa\	-us	4a/	4aa\
=3	=3	=3	=3	=3	=3	=3	=3	=3	=3
*	*	*	*	*	*ij	*	*	*	*
8B\L	8	(8b/L	(8bb\L	(8B\L	De-	(8b\L	De-	4r	4r
8G\	8	8g/J)	8gg\)J	8G\J)	.	8gg\J)	.	.	.
8E\	8	8e/L|<	8ee\L|>	8E\	-us	8ee\	.	8r	8r
*	*	*	*	*	*Xij	*	*	*	*
8C#\J	8	8c#/J|<	8cc#\J|>	8C#/	Sa-	8cc#\	-us	8a/	8ee\
!	!	!	!	!	!	!LO:LB:g=original	!	!	!
4D\	8	8.d/L	8.ddT\L	8.D/	.	8.dd\	Sa-	8.f#/L	8.dd\L
.	.	16d/Jk	16dd\Jk	16D/	-ba-	16dd\	-ba-	16f#/Jk	16dd\Jk
4DD;</	.	4d;</ 4a/ 4ff#/	4d/ 4a/ 4ff#/	4D;</	-oth	4dd\	-oth.	4f#/	4dd\
!	!	!	!	!	!	!	!	!LO:LB:g=original	!
=4||	=4||	=4||	=4||	=4||	=4||	=4||	=4||	=4||	=4||
*	*	*clefG2	*	*	*	*	*	*	*
*	*	*k[f#c#]	*	*	*	*	*	*	*
*M3/4	*	*M3/4	*M3/4	*M3/4	*	*M3/4	*	*M3/4	*
!LO:TX:a:rj:t=Allo	!	!LO:TX:a:t=allo	!	!	!	!LO:TX:a:t=allo	!	!LO:TX:rj:t=allo	!LO:TX:a:rj:t=allo
4D/	.	4ff#\	4aa\|>	2.r	.	4ff#\	Ple-	4ff#\	4aa\
4r	.	8ff#\L	8aa\L	.	.	(8ff#\L	-ni	8ff#\L	8aa\L
.	.	(8ee\	(8gg\	.	.	8ee\J)	.	8ee\	8gg\
4r	.	8dd\	8ff#\)	.	.	(8dd\L	sunt	8dd\	8ff#\
.	.	8ee\J)	8gg\J	.	.	8ee\J)	.	8ee\J	8gg\J
=5	=5	=5	=5	=5	=5	=5	=5	=5	=5
*	*	*2\right	*2\right	*	*	*2\right	*	*2\right	*2\right
4d\	.	2ff#\	2aa\	4d\	Ple-	2ff#\	Cae-	2ff#\	2aa\
8d\L	.	.	.	(8d\L	-ni	.	.	.	.
8cnX\	6	.	.	8cn\J)	.	.	.	.	.
!	!	!	!	!LO:LB:g=original	!	!	!	!	!
8B\	.	4gg\	4bb\	(8B\L	sunt	4gg\	-li	4gg\	4bb\
8c#X\J	.	.	.	8c#X\J)	.	.	.	.	.
=6	=6	=6	=6	=6	=6	=6	=6	=6	=6
*	*	*	*	*	*	*	*ij	*	*
4d\	.	4ff#\	4aa\	4d\	Coe-	4ff#\	cae-	4ff#\	4aa\
8d\L	.	4ff#\	4aa\	(8d\L	-li	4ff#\	-li	4ff#\	4aa\
*	*	*	*	*	*	*	*Xij	*	*
8cn\	6	.	.	8cn\J)	.	.	.	.	.
!	!	!LO:TUP:t=klamra łukowa i cyfra	!LO:TUP:t=klamra łukowa i cyfra	!	!	!	!	!	!
8B\	.	12bb\L	12ddd\L	(8B\L	et	4gg\	et	4gg\	4bb\
.	.	12aa\	12ccc#\	.	.	.	.	.	.
8c#X\J	.	.	.	8c#X\J)	.	.	.	.	.
.	.	12gg\J	12bb\J	.	.	.	.	.	.
!	!	!	!	!	!	!	!	!	!LO:LB:g=original
=7	=7	=7	=7	=7	=7	=7	=7	=7	=7
4d\	4	4gg\|>	4bbT\	4d\	ter-	4gg\	ter-	4gg\	4bb\
4D\	5 3	4ff#\|>	4aa\	4D/	-ra	4ff#\	-ra	4ff#\	4aa\
8F#\L	6	4r	4r	4r	.	4r	.	4r	4r
8A\J	.	.	.	.	.	.	.	.	.
=8	=8	=8	=8	=8	=8	=8	=8	=8	=8
4D/	.	4f#/|<	4a/|<	4F#\	ple-	4a\	ple-	4ff#\	4aa\
4r	.	8f#/L	(8a/L	(8F#\L	-ni	(8a\L	-ni	8ff#\L	8aa\L
.	.	(8e/	8g/	8E\J)	.	8g\J)	.	8ee\	8gg\
4r	.	8d/)	8f#/	(8D\L	sunt	(8f#/L	sunt	8dd\	8ff#\
.	.	8e/J	8g/J)	8E\J)	.	8g/J)	.	8ee\J	8gg\J
!	!	!	!	!	!	!LO:LB:g=original	!	!	!
=9	=9	=9	=9	=9	=9	=9	=9	=9	=9
*	*	*	*	*2\right	*	*	*	*	*
4D/	.	2f#/	2a/	2F#\	coe-	2a\	cae-	2ff#\	2aa\
8D/L	.	.	.	.	.	.	.	.	.
8Cn/	.	.	.	.	.	.	.	.	.
8BB/	6	4g/	4b/	4G\	-li	4b\	-li	4gg\	4bb\
8C#X/J	.	.	.	.	.	.	.	.	.
!LO:LB:g=original	!	!	!LO:LB:g=original	!	!	!	!	!	!
=10	=10	=10	=10	=10	=10	=10	=10	=10	=10
*	*	*	*	*	*ij	*	*ij	*	*
4ryy	.	4f#/	4a/	4F#\	coe-	4a\	cae-	4ff#\	4aa\
8D/L	.	4f#/	4a/	4F#\	-li	4a\	-li	4ff#\	4aa\
*	*	*	*	*	*Xij	*	*Xij	*	*
8Cn/	.	.	.	.	.	.	.	.	.
!	!	!LO:TUP:t=klamra łukowa i cyfra	!LO:TUP:t=klamra łukowa i cyfra	!	!	!	!	!	!
8BB/	6	12b/L	12dd\L	4G\	et	4b\	et	4gg\	4bb\
.	.	12a/	12cc#\	.	.	.	.	.	.
8C#X/J	.	.	.	.	.	.	.	.	.
.	.	12g/J	12b\J	.	.	.	.	.	.
=11	=11	=11	=11	=11	=11	=11	=11	=11	=11
.	.	8qqa/	8qqcc#/	8qqA/	.	8qqcc#/	.	.	.
4D\	6 4	4g/	4b\	4G\	ter-	4b\	ter-	4gg\	4bb\
4DD/	5 3	4f#/	4a\	4F#\	-ra	4a\	-ra	4ff#\	4aa\
!LO:TUP:t=klamra łukowa i cyfra	!	!	!	!	!	!	!	!	!
12D\L	.	4r	4r	4r	.	4r	.	4r	4r
12F#\	.	.	.	.	.	.	.	.	.
12A\J	.	.	.	.	.	.	.	.	.
!	!	!LO:LB:g=original	!	!	!	!	!	!	!
=12	=12	=12	=12	=12	=12	=12	=12	=12	=12
!	!	!	!	!	!	!	!	!LO:TX:a:t=4	!
8D\L	.	4a/	(8ff#\L	8D\L	glo-	(8ff#\L	ple-	0.r	0.r
8E\	.	.	8ee\J)	8E\	.	8ee\J)	.	.	.
.	.	.	8qqee/	.	.	8qqee/	.	.	.
8F#\	.	4r	2dd\	8F#\	.	2dd\	-ni	.	.
8G#X\	.	.	.	8G#X\	.	.	.	.	.
8A\	.	4r	.	8A\	.	.	.	.	.
8B\J	.	.	.	8B\J	.	.	.	.	.
!	!	!	!	!LO:LB:g=original	!	!	!	!	!
=13	=13	=13	=13	=13	=13	=13	=13	=13	=13
*	*	*	*	*	*	*	*ij	*	*
8C#\L	6	4a/	(8ee\L	8C#/L	.	(8ee\L	ple-	.	.
8D\	.	.	8dd\J)	8D/	.	8dd\J)	.	.	.
.	.	.	8qqdd/	.	.	8qqdd/	.	.	.
8E\	.	4r	2cc#\	8E/	.	2cc#\	-ni	.	.
*	*	*	*	*	*	*	*Xij	*	*
8F#\	.	.	.	8F#/	.	.	.	.	.
8G#X\	.	4r	.	8G#X/	.	.	.	.	.
8A\J	.	.	.	8A/J	.	.	.	.	.
=14	=14	=14	=14	=14	=14	=14	=14	=14	=14
.	.	.	8qqee/	.	.	.	.	.	.
8BB\L	6	4g#X/	(8dd\L	8BB/L	.	(8dd\L	ple-	.	.
8C#\	.	.	8cc#\J)	8C#/	.	8cc#\J)	.	.	.
.	.	.	8qqcc#/	.	.	.	.	.	.
8D\	.	4r	2b\	8D/	.	4b\	-ni	.	.
8E\	.	.	.	8E/	.	.	.	.	.
8F#\	.	4r	.	8F#/	.	4b\	sunt	.	.
8G#X\J	.	.	.	8G#X/J	.	.	.	.	.
=15	=15	=15	=15	=15	=15	=15	=15	=15	=15
!	!	!	!LO:TUP:t=klamra łukowa i cyfra	!	!	!	!	!LO:TX:b:t=Volti	!
4A\	.	(4e/	12cc#\L	4A\	ri-	4cc#\	Cae-	.	.
.	.	.	12a\	.	.	.	.	.	.
.	.	.	12cc#\J	.	.	.	.	.	.
!	!	!	!LO:TUP:t=klamra łukowa i cyfra	!	!	!	!	!	!
4c#\	6	4g/)	12ee\L	4c#\	-a	4ee\	-li	.	.
.	.	.	12cc#\	.	.	.	.	.	.
.	.	.	12ee\J	.	.	.	.	.	.
4A\	.	4cc#\|>	8aa\L	4A\	glo-	4cc#\	et	.	.
.	.	.	8ee\J|>	.	.	.	.	.	.
!	!	!	!	!	!	!LO:LB:g=original	!	!LO:PB:g=original	!
=16	=16	=16	=16	=16	=16	=16	=16	=16	=16
.	.	8qqcc#/	8qqee/	.	.	.	.	.	.
4G#X\	6 5	(2b/	(2dd\	(4G#X\	-ri-	2dd\	ter-	[2.ee\	[2.ee\
4E\	.	.	.	4E\)	.	.	.	.	.
4A\	.	8a/L)	8cc#\L)	4A\	-a	(8cc#\L	-ra	.	.
.	.	8cc#/J	8ee\J|>	.	.	8ee\J)	.	.	.
!LO:LB:g=original	!	!	!	!	!	!	!	!	!
=17	=17	=17	=17	=17	=17	=17	=17	=17	=17
.	.	8qqcc#/	8qqee/	.	.	8qqee/	.	.	.
4ryy	.	(2b/	(2dd\	(4G#X\	glo-	2dd\	glo-	2.ee\]	2.ee\]
4r	.	.	.	8E\)	.	.	.	.	.
.	.	.	.	8E\	-ri-	.	.	.	.
4A\	.	8a/L)	8cc#\L)	4A\	-a	8cc#\	-ri-	.	.
.	.	8cc#/J|<	8aa\J|>	.	.	8ee\	-a	.	.
=18	=18	=18	=18	=18	=18	=18	=18	=18	=18
!	!	!LO:TUP:t=klamra łukowa i cyfra	!LO:TUP:t=klamra łukowa i cyfra	!	!	!	!	!	!
4D\	6	12dd\L	12ff#\L	4d\	tu-	(8ff#\L	tu-	4dd\	4ff#\
.	.	12cc#\	12ee\	.	.	.	.	.	.
.	.	.	.	.	.	8dd\J)	.	.	.
.	.	12b\J	12dd\J	.	.	.	.	.	.
.	.	.	.	.	.	8qqcc#/	.	.	.
4E\	6 4	4a/	4cc#\	(4e\	.	2bT\	.	2ee\	4aa\
4EE/	7 #3	4g#Xt/	4bT\	4E\)	.	.	.	.	4gg#X\
=19	=19	=19	=19	=19	=19	=19	=19	=19	=19
.	.	8qqg/	8qqb/	.	.	.	.	.	.
8r	.	2a/	2a/	2A\	-a	2a\	-a	4ee\	4aa\
8AA/L|<	.	.	.	.	.	.	.	.	.
8C#/|<	.	.	.	.	.	.	.	8a/L	8ee\L
8AA/|<	.	.	.	.	.	.	.	8a/	8ee\
8E/|<	.	4r	4r	4r	.	4r	.	8a/	8ee\
8C#/J|<	.	.	.	.	.	.	.	8a/J	8ee\J
=20	=20	=20	=20	=20	=20	=20	=20	=20	=20
4A\	.	4cc#\|>	4ee\|>	4E\	ple-	4cc#\	ple-	2a/	2ee\
4r	.	8cc#\L	8ee\L	(8E\L	-ni	(8cc#\L	-ni	.	.
.	.	(8b\	(8dd\	8D\J)	.	8b\J)	.	.	.
4r	.	8a\)	8cc#\)	(8C#\L	sunt	(8a\L	sunt	4r	4r
.	.	8b\J	8dd\J	8D\J)	.	8b\J)	.	.	.
!	!	!	!	!LO:LB:g=original	!	!	!	!	!LO:LB:g=original
=21	=21	=21	=21	=21	=21	=21	=21	=21	=21
4A\	.	2cc#\	2ee\	2E\	cae-	2cc#\	Cae-	2a/	2ee\
8A\L	.	.	.	.	.	.	.	.	.
8Gn\	6	.	.	.	.	.	.	.	.
8F#\	.	4dd\	4ff#\	4F#\	-li	4dd\	-li	4dd\	4ff#\
8G#X\J	.	.	.	.	.	.	.	.	.
=22	=22	=22	=22	=22	=22	=22	=22	=22	=22
*	*	*	*	*	*ij	*	*ij	*	*
4A\	.	4cc#\	4ee\	4E\	cae-	4cc#\	cae-	4a/	4ee\
8A\L	.	4cc#\	4ee\	4E\	-li	4cc#\	-li	4a/	4ee\
*	*	*	*	*	*Xij	*	*Xij	*	*
8Gn\	6	.	.	.	.	.	.	.	.
!	!	!LO:TUP:t=klamra łukowa i cyfra	!LO:TUP:t=klamra łukowa i cyfra	!	!	!	!	!	!
.	.	.	8qqbb/	.	.	.	.	.	.
8F#\	.	12ff#\L	12aa\L	4F#\	et	4dd\	et	4dd\	4ff#\
.	.	12ee\	12gg#X\	.	.	.	.	.	.
8G#X\J	.	.	.	.	.	.	.	.	.
.	.	12dd\J	12ff#\J	.	.	.	.	.	.
!	!	!	!LO:LB:g=original	!	!	!LO:LB:g=original	!	!	!
=23	=23	=23	=23	=23	=23	=23	=23	=23	=23
.	.	8qqee/	8qqgg/	8qqG/	.	.	.	.	.
4AA/	6 4	4dd\	4ff#\	4F#\	ter-	4dd\	ter-	4dd\	4ff#\
8A\L	5 3	4cc#\	4ee\	4E\	-ra	4cc#\	-ra	4a/	4ee\
8Gn\	.	.	.	.	.	.	.	.	.
8F#\	.	4r	4r	4r	.	4r	.	8dd\L	8ff#\L
8E\J	.	.	.	.	.	.	.	8ee\J	8gg\J
!LO:LB:g=original	!	!	!	!	!	!	!	!	!
=24	=24	=24	=24	=24	=24	=24	=24	=24	=24
2C#/	.	4ff#\	4aa\|>	4F#\	ple-	4a\	ple-	4ff#\	4aa\
.	.	(8ff#\L	8aa\L	(8F#\L	-ni	(8a\L	-ni	8ff#\L	8aa\L
.	.	8ee\	(8ggn\	8E\J)	.	8g\J)	.	8ee\	8gg\
4r	.	8dd\)	8ff#\)	(8D\L	sunt	(8f#/L	sunt	8dd\	8ff#\
.	.	8ee\J	8gg\J	8E\J)	.	8g/J)	.	8ee\J	8gg\J
!	!	!	!	!	!	!	!	!LO:LB:g=original	!
=25	=25	=25	=25	=25	=25	=25	=25	=25	=25
4D/	.	2ff#\	2aa\	(2F#\	Cae-	2a\	cae-	2ff#\	2aa\
8D/L	.	.	.	.	.	.	.	.	.
8Cn/	.	.	.	.	.	.	.	.	.
8BB/	6	4gg\	4bb\	4G\)	-li	4b\	-li	4gg\	4bb\
8C#X/J	.	.	.	.	.	.	.	.	.
!	!	!LO:LB:g=original	!	!	!	!	!	!	!
=26	=26	=26	=26	=26	=26	=26	=26	=26	=26
*	*	*	*	*	*ij	*	*ij	*	*
4D/	.	4ff#\	4aa\	4F#\	cae-	4a\	cae-	4ff#\	4aa\
8D/L	.	4ff#\	4aa\	4F#\	-li	4a\	-li	4ff#\	4aa\
*	*	*	*	*	*Xij	*	*Xij	*	*
8Cn/	.	.	.	.	.	.	.	.	.
!	!	!LO:TUP:t=klamra łukowa i cyfra	!LO:TUP:t=klamra łukowa i cyfra	!	!	!	!	!	!
8BB/	6	12bb\L	12ddd\L	4G\	et	4b\	et	4gg\	4bb\
.	.	12aa\	12ccc#\	.	.	.	.	.	.
8C#X/J	.	.	.	.	.	.	.	.	.
.	.	12gg\J	12bb\J	.	.	.	.	.	.
=27	=27	=27	=27	=27	=27	=27	=27	=27	=27
.	.	8qqaa/	8qqccc#/	8qqA/	.	8qqcc#/	.	.	.
4D\	6 4	4gg\	4bb\	4G\	ter-	4b\	ter-	4gg\	4bb\
8d\L	5 3	4ff#\	4aa\	4F#\	-ra	4a\	-ra	4ff#\	4aa\
8A\	.	.	.	.	.	.	.	.	.
8F#\	.	4r	4r	4r	.	4r	.	4r	4r
8A\J	.	.	.	.	.	.	.	.	.
=28	=28	=28	=28	=28	=28	=28	=28	=28	=28
*	*	*^	*	*	*	*	*	*	*
*2\right	*	*	*	*	*	*	*	*	*	*
[2.D\	.	[2.a/	[2.f#\	4dd\	[>2.D/	glo-	[2.a\	glo-	2f#/	2a/
.	.	.	.	8dd\L	.	.	.	.	.	.
.	.	.	.	8ee\	.	.	.	.	.	.
.	.	.	.	8ff#\	.	.	.	.	4r	4r
.	.	.	.	8gg#X\J	.	.	.	.	.	.
=29	=29	=29	=29	=29	=29	=29	=29	=29	=29	=29
!	!	!	!	!	!	!	!	!	!LO:TX:a:t=1	!LO:TX:a:t=1
2.D\]	.	2.a/]	2.f#\]	4aa\|>	2.D/_>	.	2.a\_	.	2.r	2.r
.	.	.	.	(8aa\L	.	.	.	.	.	.
.	.	.	.	8gg#X\)	.	.	.	.	.	.
.	.	.	.	(8bb\	.	.	.	.	.	.
.	.	.	.	8aa\J)	.	.	.	.	.	.
!	!	!	!	!	!	!	!LO:PB:g=original	!	!	!
=30	=30	=30	=30	=30	=30	=30	=30	=30	=30	=30
2.D\	.	[2.a/	[2.f#\	4dd\	2.D/_>	.	2.a\_	.	2f#/	2a/
.	.	.	.	8dd\L	.	.	.	.	.	.
.	.	.	.	8ee\	.	.	.	.	.	.
.	.	.	.	8ff#\	.	.	.	.	4r	4r
.	.	.	.	8gg#X\J	.	.	.	.	.	.
!	!	!	!	!	!LO:LB:g=original	!	!	!	!	!
=31	=31	=31	=31	=31	=31	=31	=31	=31	=31	=31
!	!	!	!	!	!	!	!	!	!LO:TX:a:t=1	!LO:TX:a:t=1
2.D\	.	2.a/]	2.f#\]	4aa\|>	2.D/_>	.	2.a\]	.	2.r	2.r
.	.	.	.	(8aa\L	.	.	.	.	.	.
.	.	.	.	8gg#X\)	.	.	.	.	.	.
.	.	.	.	(8bb\	.	.	.	.	.	.
.	.	.	.	8aa\J)	.	.	.	.	.	.
*	*	*v	*v	*	*	*	*	*	*	*
=32	=32	=32	=32	=32	=32	=32	=32	=32	=32
4D\	.	8a/L	8aa\L	4D/]	.	4a\	.	4ff#\	4aa\
.	.	8f#/	8ff#\	.	.	.	.	.	.
4G\	.	8b/	8bb\	4G\	-ri-	4b\	-ri-	4ee\	4gg\
.	.	8gn/	8ggn\	.	.	.	.	.	.
4G#X\	6 5	8e/	8ee\	4G#X\	-a	(8ee\L	-a	8ee\L	8gg\L
.	.	8c#/J	8dd\J	.	.	8ff#\J)	.	8dd\J	8ff#\J
!LO:LB:g=original	!	!	!	!	!	!	!	!	!LO:LB:g=original
=33	=33	=33	=33	=33	=33	=33	=33	=33	=33
4A\	.	8c#/L	8cc#\L	4A\	tu-	(8cc#\L	tu-	8a/L	8ee\L
.	.	8A/J	8a\J	.	.	8a\J)	.	8a/J	8ee\J
8d\L	.	2d/	2dd\	2D/	-a	2dd\	-a	4f#/	4dd\
8A\	.	.	.	.	.	.	.	.	.
8F#\	.	.	.	.	.	.	.	4r	4r
8A\J	.	.	.	.	.	.	.	.	.
=34	=34	=34	=34	=34	=34	=34	=34	=34	=34
!	!	!	!	!	!	!LO:TX:a:t=8	!	!LO:TX:a:t=2	!LO:TX:a:t=2
2.D\	.	8dd\L	8ff#\L	0.r	.	0.r	.	1.r	1.r
.	.	8ff#\J	8aa\J	.	.	.	.	.	.
.	.	(4ff#\	(4aa\	.	.	.	.	.	.
.	.	8ee\L)	8gg\L)	.	.	.	.	.	.
.	.	8dd\J|>	8ff#\J|>	.	.	.	.	.	.
=35	=35	=35	=35	=35	=35	=35	=35	=35	=35
4A\	7	8ee\L	8gg\L	.	.	.	.	.	.
.	.	8cc#\	8ee\	.	.	.	.	.	.
4AA/	.	8a\	8cc#\	.	.	.	.	.	.
.	.	8g\J	8a\J	.	.	.	.	.	.
!	!	!	!LO:LB:g=original	!	!	!	!	!	!
!LO:TUP:t=klamra łukowa i cyfra	!	!	!	!	!	!	!	!	!
.	.	8qqg/	8qqa/	.	.	.	.	.	.
12D\L	.	4f#/	4dd\	.	.	.	.	.	.
12F#\	.	.	.	.	.	.	.	.	.
12A\J	.	.	.	.	.	.	.	.	.
!	!	!	!	!	!	!	!	!LO:LB:g=original	!
=36	=36	=36	=36	=36	=36	=36	=36	=36	=36
2.D\	.	8dd\L	8ff#\L	.	.	.	.	8dd\L	8ff#\L
.	.	8ff#\J	8aa\J	.	.	.	.	8ff#\J	8aa\J
.	.	(4ff#\	4aa\	.	.	.	.	4ff#\	4aa\
.	.	8ee\L)	(8gg\L	.	.	.	.	8ee\L	8gg\L
.	.	8dd\J|>	8ff#\J)	.	.	.	.	8dd\J	8ff#\J
=37	=37	=37	=37	=37	=37	=37	=37	=37	=37
4A\	7	8ee\L	8gg\L	.	.	.	.	4ee\	4gg\
.	.	8cc#\	8ee\	.	.	.	.	.	.
4AA/	.	8a\	8cc#\	.	.	.	.	8a\L	8ee\L
.	.	8g\J	8a\J	.	.	.	.	8ee\J	8gg\J
!LO:TUP:t=klamra łukowa i cyfra	!	!	!	!	!	!	!	!	!
.	.	8qqg/	8qqa/	.	.	.	.	.	.
12D\L	.	4f#/	4dd\	.	.	.	.	4dd\	4ff#\
12F#\	.	.	.	.	.	.	.	.	.
12A\J	.	.	.	.	.	.	.	.	.
=38	=38	=38	=38	=38	=38	=38	=38	=38	=38
*	*	*^	*	*	*	*	*	*	*
[2.D\	.	[2.a/	[2.f#\	4d/	0.r	.	0.r	.	2f#/	2a/
.	.	.	.	(8dd\L	.	.	.	.	.	.
.	.	.	.	8cc#\)	.	.	.	.	.	.
.	.	.	.	(8ee\	.	.	.	.	4r	4r
.	.	.	.	8dd\J)	.	.	.	.	.	.
=39	=39	=39	=39	=39	=39	=39	=39	=39	=39	=39
2.D\]	.	2.a/]	2.f#\]	4d/	.	.	.	.	2f#/	2a/
.	.	.	.	(8dd\L	.	.	.	.	.	.
.	.	.	.	8cc#\)	.	.	.	.	.	.
.	.	.	.	(8ee\	.	.	.	.	4r	4r
.	.	.	.	8dd\J)	.	.	.	.	.	.
*	*	*v	*v	*	*	*	*	*	*	*
!	!	!LO:LB:g=original	!	!	!	!	!	!	!
=40	=40	=40	=40	=40	=40	=40	=40	=40	=40
!	!	!	!LO:TX:t=P:problem=mixed beam	!	!	!	!	!	!
4D\	.	8r	8d/L	.	.	.	.	2f#/	2a/
.	.	8f#/|<	8dd\J|>	.	.	.	.	.	.
4A\	6 4	(8f#/L	(8dd\L	.	.	.	.	.	.
.	.	8e/	8cc#\)	.	.	.	.	.	.
4AA/	7 3	8g/)	(8ee\	.	.	.	.	4r	4r
.	.	8e/J	8cc#\J)	.	.	.	.	.	.
=41	=41	=41	=41	=41	=41	=41	=41	=41	=41
4D\	.	(4d/	8d/L	.	.	.	.	4r	4r
.	.	.	(8f#/	.	.	.	.	.	.
4r	.	8f#/L)	8a/)	.	.	.	.	4r	4r
.	.	8a/|<	8dd/|<	.	.	.	.	.	.
4r	.	8dd/|<	8ff#/|<	.	.	.	.	8dd\L	8ff#\L
.	.	8ff#/J|<	8aa/J|<	.	.	.	.	8ff#\J	8aa\J
!LO:LB:g=original	!	!	!	!	!	!	!	!	!
=42	=42	=42	=42	=42	=42	=42	=42	=42	=42
.	.	.	.	.	.	.	.	.	8qqaa/
4ryy	.	(2ee\	(2gg\	4c#\	glo-	[2.a\	glo-	2ee\	2gg\
4AA/	.	.	.	4A\	-ri-	.	.	.	.
4D\	.	8dd\L)	8ff#\L)	4d\	-a	.	.	8dd\L	8ff#\L
.	.	8ff#\J|>	8aa\J|>	.	.	.	.	8ff#\J	8aa\J
=43	=43	=43	=43	=43	=43	=43	=43	=43	=43
*	*	*	*	*	*ij	*	*	*	*
4C#/	6 5	(2ee\	(2gg\	4c#\	glo-	2.a\]	.	2ee\	2gg\
4AA/	.	.	.	4A\	-ri-	.	.	.	.
4D\	.	8dd\L)	8ff#\L)	4d\	-a	.	.	8dd\L	8ff#\L
*	*	*	*	*	*Xij	*	*	*	*
.	.	8ff#\J|>	8ddd\J	.	.	.	.	8ff#\J	8aa\J
!	!	!	!	!	!	!LO:LB:g=original	!	!	!
=44	=44	=44	=44	=44	=44	=44	=44	=44	=44
!	!	!LO:TUP:t=klamra łukowa i cyfra	!LO:TUP:t=klamra łukowa i cyfra	!	!	!	!	!	!
4G\	6	12gg\L	12bb\L	4G\	tu-	8b\	-ri-	8gg\L	8bb\L
.	.	12ff#\	12aa\	.	.	.	.	.	.
.	.	.	.	.	.	8ee\	-a	8ee\J	8gg\J
.	.	12ee\J	12gg\J	.	.	.	.	.	.
!	!	!	!	!	!	!	!	!LO:LB:g=original	!
4A\	6 4	4dd\	4ff#\	2A\	.	(4dd\	tu-	4dd\	4ff#\
4AA/	5 3	4cc#t\	4eeT\	.	.	4cc#t\)	.	8a/L	8ee\L
.	.	.	.	.	.	.	.	8f#/J	8dd\J
!	!	!	!	!	!	!	!	!	!LO:LB:g=original
=45	=45	=45	=45	=45	=45	=45	=45	=45	=45
!	!	!	!LO:TX:t=P:problem=mixed beam	!	!	!	!	!	!
4D\	.	8d/L	8d/L	2D/	-a	2dd\	-a	2.f#/	2.dd\
.	.	8f#/J	8dd\J	.	.	.	.	.	.
4r	.	(16f#/LL	(16dd\LL	.	.	.	.	.	.
.	.	16e/	16cc#\	.	.	.	.	.	.
.	.	16g/	16ee\	.	.	.	.	.	.
.	.	16f#/JJ)	16dd\JJ)	.	.	.	.	.	.
4r	.	(16f#/LL	(16dd\LL	4r	.	4r	.	.	.
.	.	16e/	16cc#\	.	.	.	.	.	.
.	.	16g/	16ee\	.	.	.	.	.	.
.	.	16f#/JJ)	16dd\JJ)	.	.	.	.	.	.
!	!	!	!LO:LB:g=original	!	!	!	!	!	!
=46	=46	=46	=46	=46	=46	=46	=46	=46	=46
!	!	!LO:TX:t=P:problem=mixed beam	!LO:TX:t=P:problem=mixed beam	!	!	!LO:TX:b:t=5	!	!	!
4D\	.	8d/L	8d/L	0.r	.	0.r	.	2.dd\	2.ff#\
.	.	8dd\J	8ff#\J	.	.	.	.	.	.
4r	.	(16dd\LL	(16ff#\LL	.	.	.	.	.	.
.	.	16cc#\	16ee\)	.	.	.	.	.	.
.	.	16ee\	(16gg\	.	.	.	.	.	.
.	.	16dd\JJ)	16ff#\JJ)	.	.	.	.	.	.
4r	.	(16dd\LL	(16ff#\LL	.	.	.	.	.	.
.	.	16cc#\	16ee\)	.	.	.	.	.	.
.	.	16ee\	(16gg\	.	.	.	.	.	.
.	.	16dd\JJ)	16ff#\JJ)	.	.	.	.	.	.
=47	=47	=47	=47	=47	=47	=47	=47	=47	=47
!	!	!LO:TX:t=P:problem=mixed beam	!LO:TX:t=P:problem=mixed beam	!	!	!	!	!	!
8D\L	.	8d/L	8d/L	.	.	.	.	2.ff#\	2.aa\
8d\J	.	8ff#\J	8aa\J	.	.	.	.	.	.
(16d\LL	.	(16ff#\LL	(16aa\LL	.	.	.	.	.	.
16c#\)	.	16ee\	16gg#X\)	.	.	.	.	.	.
(16e\	.	16gg\)	(16bb\	.	.	.	.	.	.
16d\JJ)	.	16ff#\JJ	16aa\JJ)	.	.	.	.	.	.
(16d\LL	.	(16ff#\LL	(16aa\LL	.	.	.	.	.	.
16c#\)	.	16ee\	16gg#X\)	.	.	.	.	.	.
(16e\	.	16gg\	(16bb\	.	.	.	.	.	.
16d\JJ)	.	16ff#\JJ)	16aa\JJ)	.	.	.	.	.	.
=48	=48	=48	=48	=48	=48	=48	=48	=48	=48
2.ryy	.	8d/L	8d/	.	.	.	.	2.dd\	2.ff#\
.	.	8f#/J	4ddd\	.	.	.	.	.	.
.	.	(16f#/LL	.	.	.	.	.	.	.
.	.	16e/	.	.	.	.	.	.	.
.	.	16g/	4dd\	.	.	.	.	.	.
.	.	16f#/JJ)	.	.	.	.	.	.	.
.	.	(16f#/LL	.	.	.	.	.	.	.
.	.	16e/	.	.	.	.	.	.	.
.	.	16g/	8ddd\	.	.	.	.	.	.
.	.	16f#/JJ)	.	.	.	.	.	.	.
!	!	!LO:LB:g=original	!	!	!	!	!	!	!
=49	=49	=49	=49	=49	=49	=49	=49	=49	=49
4GG/	.	4d/ 4b/ 4gg/	4G/ 4d/ 4b/ 4gg/	.	.	.	.	4r	4r
4BB/	6	4d/ 4b/ 4gg/	4G/ 4d/ 4b/ 4gg/	.	.	.	.	8d/L	8d/L
.	.	.	.	.	.	.	.	8d/J	8d/J
4D/	5	4d/ 4a/ 4ff#/	4d/ 4a/ 4ff#/	.	.	.	.	4d/	4d/
=50	=50	=50	=50	=50	=50	=50	=50	=50	=50
4G\	.	4d/ 4b/ 4gg/	4G/ 4d/ 4b/ 4gg/	2.r	.	2.r	.	4r	4r
4B\	6	4d/ 4b/ 4gg/	4G/ 4d/ 4b/ 4gg/	.	.	.	.	8d/L	8d/L
.	.	.	.	.	.	.	.	8d/J	8d/J
!LO:TX:b:t=Verte	!	!	!	!	!	!	!	!	!
4d\	5	4d/ 4a/ 4ff#/	4d/ 4a/ 4ff#/	.	.	.	.	4d/	4d/
!LO:PB:g=original	!	!	!	!	!	!	!	!	!
=51	=51	=51	=51	=51	=51	=51	=51	=51	=51
.	.	.	8qqG/ 8qqd/ 8qqb/	.	.	.	.	.	.
4G\	.	2.b/	[2.gg\	2.B\	glo-	2.gg\	glo-	4d/	4d/
8GG/L	.	.	.	.	.	.	.	8d/L	8d/L
8AA/	6	.	.	.	.	.	.	8d/	8d/
8BB/	.	.	.	.	.	.	.	8d/	8d/
8C#/J	.	.	.	.	.	.	.	8d/J	8d/J
=52	=52	=52	=52	=52	=52	=52	=52	=52	=52
2.D\	6 4	4b/	4gg\]	4B\	-ri-	4gg\	-ri-	4d/	4d/
.	5 3	4a/	4ff#\	4A\	-a	4ff#\	-a	4d/	4d/
.	4 2	4g/	4ee\	4G\	tu-	4ee\	tu-	8d/L	8d/L
.	.	.	.	.	.	.	.	8d/J	8d/J
!	!	!	!	!LO:LB:g=original	!	!	!	!	!
=53	=53	=53	=53	=53	=53	=53	=53	=53	=53
.	.	.	.	.	.	8qqee/	.	.	.
!	!	!	!	!	!	!	!	!LO:N:vis=2	!
2.DD/	5 3	2.a/	2.d/ 2.a/ 2.ff#/	2.D/	-a	2.ff#\	-a.	2.d/	2.f#/
==	==	==	==	==	==	==	==	==	==
*-	*-	*-	*-	*-	*-	*-	*-	*-	*-
!!!system-decoration: [(s1,s2)][(s3,s4)][(s5,s6)]s7
!!!RDF**kern: > = above
!!!RDF**kern: < = below
!!!ENC: Andrzej Gręziak
!!!END: 2022-03-29
!!!ENC: Leszek Kubiak
!!!END: 2022-04-08
!!!RDF**kern: | = vertical stroke
